src/assets/images/zarex-logo.svg

<svg width="50" height="54" viewBox="0 0 50 54" fill="none" xmlns="http://www.w3.org/2000/svg">
<path d="M20.61 43.897H19.1427L18.9871 42.1185H18.9204C18.5869 43.319 17.8755 44.2304 16.9196 44.2304C15.8969 44.2304 15.2522 43.1411 15.2522 41.0514V39.5619C15.2522 37.4722 15.8969 36.4051 17.0307 36.4051C17.8533 36.4051 18.4535 36.9831 18.7425 37.939H18.8092V34.471C18.8092 33.4928 18.5425 33.0926 17.9422 33.0926C17.3642 33.0926 17.1197 33.4928 17.1197 34.471V35.627H15.3189V34.7155C15.3189 32.6035 16.2526 31.5587 17.9422 31.5587C19.654 31.5587 20.61 32.6035 20.61 34.7155V43.897ZM17.7421 42.6965C18.3646 42.6965 18.8092 41.9184 18.8092 40.4067V39.3174C18.8092 38.4726 18.3868 37.939 17.8088 37.939C17.3197 37.939 17.053 38.3392 17.053 39.3174V41.2959C17.053 42.2741 17.2753 42.6965 17.7421 42.6965ZM23.5723 31.8921H25.1507L25.2618 33.8485H25.3063C25.373 31.9366 26.3956 31.8921 27.4627 31.8921V33.7596C25.8398 33.7596 25.373 34.4932 25.373 35.7604V43.897H23.5723V31.8921ZM33.4038 39.3618H35.2045V41.0514C35.2045 43.1633 34.2708 44.2304 32.5813 44.2304C30.8695 44.2304 29.9135 43.1633 29.9135 41.0514V34.7155C29.9135 32.6035 30.8695 31.5587 32.5813 31.5587C34.2708 31.5587 35.2045 32.6035 35.2045 34.7155V38.228H31.7142V41.2959C31.7142 42.2741 31.981 42.6965 32.559 42.6965C33.1593 42.6965 33.4038 42.2741 33.4038 41.2959V39.3618ZM33.4038 34.471C33.4038 33.4928 33.1593 33.0926 32.5813 33.0926C31.981 33.0926 31.7142 33.4928 31.7142 34.471V36.9164H33.4038V34.471ZM43.3726 31.8921L41.8831 37.7834V37.8279L43.3726 43.897H41.5496L40.7048 40.0287L40.5715 38.4726H40.4825L40.3491 40.0287L39.5711 43.897H37.7481L39.1487 37.7834V37.7389L37.7481 31.8921H39.5711L40.3269 35.5603L40.4825 37.0942H40.5715L40.7271 35.5603L41.5496 31.8921H43.3726Z" fill="url(#paint0_linear_1_16395)"/>
<g clip-path="url(#clip0_1_16395)">
<path d="M40.2343 2.02761L40.2772 2.10828L40.3576 2.15431L41.1745 2.61963L40.3452 3.06242L40.2635 3.10623L40.2184 3.18668L39.759 4.00566L39.323 3.17442L39.2802 3.09277L39.2007 3.04676L38.3818 2.5814L39.2132 2.13864L39.2939 2.09482L39.3389 2.01437L39.7974 1.1944L40.2343 2.02761Z" fill="url(#paint1_linear_1_16395)" stroke="url(#paint2_linear_1_16395)" stroke-width="0.627959"/>
<path d="M32.5914 5.55398L32.6342 5.63563L32.7147 5.68068L34.3912 6.63438L32.6891 7.54378L32.6075 7.58759L32.5624 7.66706L31.6194 9.3506L30.7228 7.64188L30.6799 7.5612L30.6005 7.51519L28.9239 6.55953L30.626 5.65208L30.7067 5.60924L30.7517 5.52879L31.6948 3.84428L32.5914 5.55398Z" fill="url(#paint3_linear_1_16395)" stroke="url(#paint4_linear_1_16395)" stroke-width="0.627959"/>
<path d="M49.0796 26.2521C49.0796 26.2521 22.2514 24.8547 2.6546 46.9825C2.6546 46.9825 2.12609 40.8482 0.178308 33.9233L18.0152 13.574C18.0152 13.574 8.79585 15.9189 0.426353 15.8043C0.426353 15.8043 2.62111 12.1277 4.74498 6.08179C4.74498 6.08179 14.1951 9.30003 23.7467 5.10638L27.4247 10.4845L13.7768 28.7534C13.9924 28.6328 32.8498 18.1477 49.0796 26.2521Z" fill="url(#paint5_linear_1_16395)"/>
</g>
<defs>
<linearGradient id="paint0_linear_1_16395" x1="16.1232" y1="45.1155" x2="45.7251" y2="45.069" gradientUnits="userSpaceOnUse">
<stop stop-color="#D8AE6B"/>
<stop offset="1" stop-color="#1AD079"/>
</linearGradient>
<linearGradient id="paint1_linear_1_16395" x1="37.8787" y1="3.32016" x2="41.4211" y2="3.36433" gradientUnits="userSpaceOnUse">
<stop stop-color="#D8AE6B"/>
<stop offset="1" stop-color="#1AD079"/>
</linearGradient>
<linearGradient id="paint2_linear_1_16395" x1="37.8787" y1="3.32016" x2="41.4211" y2="3.36433" gradientUnits="userSpaceOnUse">
<stop stop-color="#D8AE6B"/>
<stop offset="1" stop-color="#1AD079"/>
</linearGradient>
<linearGradient id="paint3_linear_1_16395" x1="28.518" y1="7.78751" x2="34.3743" y2="7.86053" gradientUnits="userSpaceOnUse">
<stop stop-color="#D8AE6B"/>
<stop offset="1" stop-color="#1AD079"/>
</linearGradient>
<linearGradient id="paint4_linear_1_16395" x1="28.518" y1="7.78751" x2="34.3743" y2="7.86053" gradientUnits="userSpaceOnUse">
<stop stop-color="#D8AE6B"/>
<stop offset="1" stop-color="#1AD079"/>
</linearGradient>
<linearGradient id="paint5_linear_1_16395" x1="2.06081" y1="33.505" x2="44.282" y2="34.0229" gradientUnits="userSpaceOnUse">
<stop stop-color="#D8AE6B"/>
<stop offset="1" stop-color="#1AD079"/>
</linearGradient>
<clipPath id="clip0_1_16395">
<rect width="48.7917" height="46.9509" fill="white" transform="translate(0.642578) rotate(0.784331)"/>
</clipPath>
</defs>
</svg>

<svg xmlns="http://www.w3.org/2000/svg" width="50" height="54" fill="none" viewBox="0 0 50 54"><path fill="url(#a)" d="M20.61 43.897h-1.467l-.156-1.779h-.067c-.333 1.201-1.045 2.112-2 2.112-1.023 0-1.668-1.089-1.668-3.179v-1.49c0-2.089.645-3.156 1.779-3.156.822 0 1.422.578 1.712 1.534h.066v-3.468c0-.978-.267-1.378-.867-1.378-.578 0-.822.4-.822 1.378v1.156h-1.801v-.912c0-2.112.934-3.156 2.623-3.156 1.712 0 2.668 1.044 2.668 3.156zm-2.868-1.2c.623 0 1.067-.779 1.067-2.29v-1.09c0-.844-.422-1.378-1-1.378-.49 0-.756.4-.756 1.378v1.979c0 .978.222 1.4.69 1.4m5.83-10.805h1.579l.11 1.957h.045c.067-1.912 1.09-1.957 2.157-1.957v1.868c-1.623 0-2.09.733-2.09 2v8.137h-1.8zm9.832 7.47h1.8v1.69c0 2.111-.933 3.178-2.623 3.178-1.712 0-2.668-1.067-2.668-3.179v-6.336c0-2.112.956-3.156 2.668-3.156 1.69 0 2.624 1.044 2.624 3.156v3.513h-3.49v3.068c0 .978.266 1.4.844 1.4.6 0 .845-.422.845-1.4zm0-4.891c0-.978-.245-1.378-.823-1.378-.6 0-.867.4-.867 1.378v2.445h1.69zm9.969-2.579-1.49 5.891v.045l1.49 6.069H41.55l-.845-3.868-.133-1.556h-.09l-.133 1.556-.778 3.868h-1.823l1.4-6.114v-.044l-1.4-5.847h1.823l.756 3.668.156 1.534h.089l.155-1.534.823-3.668z"/><g clip-path="url(#b)"><path fill="url(#c)" stroke="url(#d)" stroke-width=".628" d="m40.234 2.028.043.08.08.046.818.466-.83.442-.081.044-.046.08-.459.82-.436-.832-.043-.081-.08-.046-.818-.466.831-.442.08-.044.046-.08.458-.82z"/><path fill="url(#e)" stroke="url(#f)" stroke-width=".628" d="m32.591 5.554.043.082.08.045 1.677.953-1.702.91-.081.044-.046.08-.943 1.683-.896-1.71-.043-.08-.08-.046-1.676-.955 1.702-.908.08-.043.046-.08.943-1.685z"/><path fill="url(#g)" d="M49.08 26.252S22.25 24.855 2.655 46.982c0 0-.529-6.134-2.477-13.059l17.837-20.349s-9.22 2.345-17.589 2.23c0 0 2.195-3.676 4.319-9.722 0 0 9.45 3.218 19.002-.976l3.678 5.379-13.648 18.268c.215-.12 19.073-10.605 35.303-2.5"/></g><defs><linearGradient id="a" x1="16.123" x2="45.725" y1="45.115" y2="45.069" gradientUnits="userSpaceOnUse"><stop stop-color="#d8ae6b"/><stop offset="1" stop-color="#1ad079"/></linearGradient><linearGradient id="c" x1="37.879" x2="41.421" y1="3.32" y2="3.364" gradientUnits="userSpaceOnUse"><stop stop-color="#d8ae6b"/><stop offset="1" stop-color="#1ad079"/></linearGradient><linearGradient id="d" x1="37.879" x2="41.421" y1="3.32" y2="3.364" gradientUnits="userSpaceOnUse"><stop stop-color="#d8ae6b"/><stop offset="1" stop-color="#1ad079"/></linearGradient><linearGradient id="e" x1="28.518" x2="34.374" y1="7.788" y2="7.861" gradientUnits="userSpaceOnUse"><stop stop-color="#d8ae6b"/><stop offset="1" stop-color="#1ad079"/></linearGradient><linearGradient id="f" x1="28.518" x2="34.374" y1="7.788" y2="7.861" gradientUnits="userSpaceOnUse"><stop stop-color="#d8ae6b"/><stop offset="1" stop-color="#1ad079"/></linearGradient><linearGradient id="g" x1="2.061" x2="44.282" y1="33.505" y2="34.023" gradientUnits="userSpaceOnUse"><stop stop-color="#d8ae6b"/><stop offset="1" stop-color="#1ad079"/></linearGradient><clipPath id="b"><path fill="#fff" d="M.643 0 49.43.668l-.643 46.947L0 46.947z"/></clipPath></defs></svg>
